icons/glyphs/glyph-code-fork.svg

<?xml version="1.0" encoding="UTF-8" standalone="no"?><svg height="16" viewBox="0 0 4.2333332 4.2333332" width="16" xmlns="http://www.w3.org/2000/svg"><sodipodi:namedview/><metadata><rdf:RDF><cc:Work><dc:format>image/svg+xml</dc:format><dc:type/><dc:title/></cc:Work></rdf:RDF></metadata><path d="m2.9258172.00000005c-.3323258 0-.6041588.27183297-.6041588.60415881 0 .2517534.1560644.46933705.3762143.56036405-.0200335.32962589-.0967966.50771209-.1873155.60679709-.1047005.1146083-.2539694.164407-.4506129.215281-.1642988.0425062-.3584553.1133834-.5382027.2295276v-.9967301c.2268396-.08804.3904607-.30786945.3904607-.56405755 0-.3323259-.2739436-.60468653-.6062695-.60468653-.33232575 0-.60468645.27236063-.60468645.60468653 0 .2556048.1618078.47508455.38729475.56352985v1.8462463c-.22548695.0879-.38729475.306342-.38729475.5619468 0 .3323259.2723607.6062693.60468645.6062693.3323259 0 .6062695-.2739434.6062695-.6062693 0-.2536792-.1602348-.4711574-.3836014-.5603639.0169599-.2768901.0870359-.4048909.1725415-.4796337.097688-.0853917.2589881-.1278403.4664424-.1815115.2074542-.0536709.4638275-.1258271.6622002-.3429722.1747802-.1913199.2762577-.4810688.2991774-.890145.233313-.0846609.4031244-.30742495.4031244-.56827875 0-.33232583-.2739436-.6041588-.6062696-.6041588zm0 .3250322c.1571217 0 .2812375.12200497.2812375.27912661 0 .1571217-.1241158.2812374-.2812375.2812374-.1571216 0-.2812374-.1241157-.2812374-.2812374 0-.15712164.1241157-.27912661.2812374-.27912661zm-1.6198844.0506543c.1571217 0 .2812373.12253265.2812373.27965441 0 .1571217-.1241156.2807096-.2812373.2807096s-.2812372-.1235879-.2812372-.2807096c0-.15712176.1241155-.27965441.2812372-.27965441zm0 2.97172286c.1571217 0 .2812373.1225328.2812373.2796545 0 .1571218-.1241156.2807095-.2812373.2807095s-.2812372-.1235877-.2812372-.2807095c0-.1571217.1241155-.2796545.2812372-.2796545z" fill="#d0d0d0"/></svg>

<?xml version="1.0" encoding="UTF-8" standalone="no"?>
<!-- Created with Inkscape (http://www.inkscape.org/) -->

<svg
   xmlns:dc="http://purl.org/dc/elements/1.1/"
   xmlns:cc="http://creativecommons.org/ns#"
   xmlns:rdf="http://www.w3.org/1999/02/22-rdf-syntax-ns#"
   xmlns:svg="http://www.w3.org/2000/svg"
   xmlns="http://www.w3.org/2000/svg"
   xmlns:sodipodi="http://sodipodi.sourceforge.net/DTD/sodipodi-0.dtd"
   xmlns:inkscape="http://www.inkscape.org/namespaces/inkscape"
   width="16"
   height="16"
   viewBox="0 0 4.2333332 4.2333332"
   version="1.1"
   id="svg8"
   inkscape:version="0.92+devel (d0390b9f4f, 2017-07-31, custom)"
   sodipodi:docname="glyph-code-fork.svg">
  <defs
     id="defs2" />
  <sodipodi:namedview
     id="base"
     pagecolor="#002466"
     bordercolor="#ffffff"
     borderopacity="0.38039216"
     inkscape:pageopacity="1"
     inkscape:pageshadow="2"
     inkscape:zoom="36.415999"
     inkscape:cx="10.094581"
     inkscape:cy="7.9162778"
     inkscape:document-units="px"
     inkscape:current-layer="svg8"
     inkscape:document-rotation="0"
     showgrid="false"
     inkscape:showpageshadow="false"
     borderlayer="true"
     inkscape:window-width="1920"
     inkscape:window-height="1051"
     inkscape:window-x="0"
     inkscape:window-y="0"
     inkscape:window-maximized="1"
     units="px" />
  <metadata
     id="metadata5">
    <rdf:RDF>
      <cc:Work
         rdf:about="">
        <dc:format>image/svg+xml</dc:format>
        <dc:type
           rdf:resource="http://purl.org/dc/dcmitype/StillImage" />
        <dc:title></dc:title>
      </cc:Work>
    </rdf:RDF>
  </metadata>
  <path
     style="color:#000000;font-style:normal;font-variant:normal;font-weight:normal;font-stretch:normal;font-size:medium;line-height:normal;font-family:sans-serif;font-variant-ligatures:normal;font-variant-position:normal;font-variant-caps:normal;font-variant-numeric:normal;font-variant-alternates:normal;font-variant-east-asian:normal;font-feature-settings:normal;font-variation-settings:normal;text-indent:0;text-align:start;text-decoration:none;text-decoration-line:none;text-decoration-style:solid;text-decoration-color:#000000;letter-spacing:normal;word-spacing:normal;text-transform:none;writing-mode:lr-tb;direction:ltr;text-orientation:mixed;dominant-baseline:auto;baseline-shift:baseline;text-anchor:start;white-space:normal;shape-padding:0;clip-rule:nonzero;display:inline;overflow:visible;visibility:visible;opacity:1;isolation:auto;mix-blend-mode:normal;color-interpolation:sRGB;color-interpolation-filters:linearRGB;solid-color:#000000;solid-opacity:1;vector-effect:none;fill:#d0d0d0;fill-opacity:1;fill-rule:nonzero;stroke:none;stroke-width:0.42333329;stroke-linecap:butt;stroke-linejoin:miter;stroke-miterlimit:4;stroke-dasharray:none;stroke-dashoffset:0;stroke-opacity:1;color-rendering:auto;image-rendering:auto;shape-rendering:auto;text-rendering:auto;enable-background:accumulate"
     d="m 2.9258172,4.5e-8 c -0.3323258,0 -0.6041588,0.271832975 -0.6041588,0.604158805 0,0.2517534 0.1560644,0.46933705 0.3762143,0.56036405 C 2.6778392,1.4941488 2.6010761,1.672235 2.5105572,1.77132 2.4058567,1.8859283 2.2565878,1.935727 2.0599443,1.986601 1.8956455,2.0291072 1.701489,2.0999844 1.5217416,2.2161286 V 1.2193985 c 0.2268396,-0.08804 0.3904607,-0.30786945 0.3904607,-0.56405755 0,-0.3323259 -0.2739436,-0.60468653 -0.6062695,-0.60468653 -0.33232575,0 -0.60468645,0.27236063 -0.60468645,0.60468653 0,0.2556048 0.1618078,0.47508455 0.38729475,0.56352985 v 1.8462463 c -0.22548695,0.0879 -0.38729475,0.306342 -0.38729475,0.5619468 0,0.3323259 0.2723607,0.6062693 0.60468645,0.6062693 0.3323259,0 0.6062695,-0.2739434 0.6062695,-0.6062693 C 1.9122023,3.3733847 1.7519675,3.1559065 1.5286009,3.0667 1.5455608,2.7898099 1.6156368,2.6618091 1.7011424,2.5870663 1.7988304,2.5016746 1.9601305,2.459226 2.1675848,2.4055548 2.375039,2.3518839 2.6314123,2.2797277 2.829785,2.0625826 3.0045652,1.8712627 3.1060427,1.5815138 3.1289624,1.1724376 3.3622754,1.0877767 3.5320868,0.86501265 3.5320868,0.60415885 3.5320868,0.27183302 3.2581432,4.5e-8 2.9258172,4.5e-8 Z m 0,0.325032195 c 0.1571217,0 0.2812375,0.12200497 0.2812375,0.27912661 0,0.1571217 -0.1241158,0.2812374 -0.2812375,0.2812374 -0.1571216,0 -0.2812374,-0.1241157 -0.2812374,-0.2812374 0,-0.15712164 0.1241157,-0.27912661 0.2812374,-0.27912661 z m -1.6198844,0.0506543 c 0.1571217,0 0.2812373,0.12253265 0.2812373,0.27965441 0,0.1571217 -0.1241156,0.2807096 -0.2812373,0.2807096 -0.1571217,0 -0.2812372,-0.1235879 -0.2812372,-0.2807096 0,-0.15712176 0.1241155,-0.27965441 0.2812372,-0.27965441 z m 0,2.97172286 c 0.1571217,0 0.2812373,0.1225328 0.2812373,0.2796545 0,0.1571218 -0.1241156,0.2807095 -0.2812373,0.2807095 -0.1571217,0 -0.2812372,-0.1235877 -0.2812372,-0.2807095 0,-0.1571217 0.1241155,-0.2796545 0.2812372,-0.2796545 z"
     id="path829"
     inkscape:connector-curvature="0"
     inkscape:label="#" />
</svg>
